X:447
T:Muineira De Chantada
T:ABA
Z:Jack Campin, http://www.campin.me.uk/
F:Jack Campin's Nine-Note Tunebook
% last edit 03-02-2013
G:Galician pipe tune
N:there are many variants of this
N:replace the low C sharp with a repeated E if necessary
M:6/8
L:1/8
Q:3/8=112
P:ABA
K:DMin
P:A
D3 |D3- (4DEFG|A3-  A2A |A>GA B2A |   A3   E3  |
    E3    F>GA|B3-  B>AG|A>BA G>FE|   F2E  D3  |
    D3- (4DEFG|A3-  A2A |A>GA d2c |   c3   B3  |
    d>^cd E2d |d3   A3  |A>BA G>FE|[1 D3-     :|\
                                   [2 D3      ||
P:B
K:D
d2c|A2B   c2A |B3   A2G |E2F  G2A |   F2D  d2c |
    A2B   c2A |B>AB A2G |E2F  G2A |[1 D3      :|\
                                   [2 D3-  D  ||
 dA|c2B-  B>GE|B2A- A>FD|A2G- G>EC|   B2A- A>dA|
    c2B-  B>GE|B2A- A>FD|A2G- G>EF|[1 D3-  D  :|\
                                   [2 D3-     ||

